X: 1
T: Gordon's
M: 4/4
L: 1/8
R: reel
K: Gmaj
|:G2 GA BGBd|edef gdBd|g2 gd edBG|ABAG E2 D2|
G2 GA BGBd|edef g2 ag|fagf egfe|1 d2f2d2 (3DEF:|2d2f2d2 gf||
|:e2 ce gece|d2 Bd gdBd|c2 Ac B2 GB|ABAG E2D2|
G2 GA BGBd|edef g2 ge|dBGB AcBA|1G2B2G2 gf:|2G2B2G2 (3DEF||
